Adwaita++-Light/panel/24/kazam-stopped.svg

<svg height="24" width="24" xmlns="http://www.w3.org/2000/svg">
  <path d="m4.1816406 6c-.6547 0-1.1816406.5344188-1.1816406 1.1992188v9.6015622c0 .665.5269406 1.199219 1.1816406 1.199219h10.6367184c.655 0 1.181641-.534219 1.181641-1.199219v-2.800781l5 2v-8l-5 2v-2.8007812c0-.6648-.526641-1.1992188-1.181641-1.1992188zm1.8183594 3h6v6h-6z" fill="#444"/>
</svg>

<svg xmlns="http://www.w3.org/2000/svg" width="24" height="24" version="1">
 <defs>
  <style id="current-color-scheme" type="text/css">
   .ColorScheme-Text { color:#444444; } .ColorScheme-Highlight { color:#4285f4; }
  </style>
 </defs>
 <path style="fill:currentColor" class="ColorScheme-Text" d="M 4.1816406,6 C 3.5269406,6 3,6.5344188 3,7.1992188 V 16.800781 C 3,17.465781 3.5269406,18 4.1816406,18 H 14.818359 C 15.473359,18 16,17.465781 16,16.800781 V 14 l 5,2 V 8 l -5,2 V 7.1992188 C 16,6.5344188 15.473359,6 14.818359,6 Z M 6,9 h 6 v 6 H 6 Z"/>
</svg>
